!! 00000] TT[00
!! NN
!!!OTL: Lanqiao danshui
!!!ARE: Asia, China,ÿNingxia, Longde
!! Ethnic Group: Han
!! I, 206
!!!SCT: C0061
!!!YEM: Copyright 1995, estate of Helmut Schaffrath.
**kern
*ICvox
*Ivox
*M2/4
*k[f#c#g#]
*A:
{8e
8e
4e
=1
8b
4b
8ee
=2
8b
8a
4b
=3
16b
16cc#
16b
16a
4f#}
=4
{8.b
16a
8b
8cc#
=5
16a
16b
16a
16f#
8e
8e
=6
8.d
16e
16a
16b
16a
16f#
=7
2e}
=8
{8.b
16a
8b
8cc#
=9
16a
16b
16a
16f#
8e
8e
=10
8.d
16e
16a
16b
16a
16f#
=11
2e}
==
!!!AGN: Xiaodiao. "Lanqiao hui" de gushi
!! neues Volkslied
!!!ONB: ESAC (Essen Associative Code) Database: CHINA
!!!AMT: simple duple
!!!AIN: vox
!!!EED: Helmut Schaffrath
!!!EEV: 1.0
*-
